icons/magicearth.svg

<?xml version="1.0" encoding="UTF-8" standalone="no"?>
<svg xmlns="http://www.w3.org/2000/svg" version="1.1" viewBox="0 0 48 48">
  <path
     style="fill:#ffffff;"
     d="M 24 2 A 22 22 0 0 0 2 24 A 22 22 0 0 0 24 46 A 22 22 0 0 0 46 24 A 22 22 0 0 0 24 2 z M 24.003906 9.2480469 C 33.147283 9.2491574 41.442751 14.081793 43.277344 21.105469 C 44.194641 24.617307 43.477897 28.161298 41.373047 31.095703 C 39.268198 34.030109 36.246129 36.582505 32 37.886719 C 30.916544 38.219987 29.518108 35.677018 30.601562 35.34375 C 34.540439 34.13391 37.143498 32.694062 38.996094 30.111328 C 40.84869 27.528593 41.51865 24.553016 40.732422 21.542969 C 39.159966 15.522876 32.540544 10.450219 24 10.449219 C 15.459456 10.448181 8.8426402 15.515376 7.2675781 21.535156 C 6.480047 24.545046 7.1544074 27.526237 9.0058594 30.109375 C 10.857312 32.692513 13.460105 34.13296 17.398438 35.34375 C 18.481836 35.677206 17.083398 38.220175 16 37.886719 C 11.754407 36.581466 8.7247148 34.030666 6.6210938 31.095703 C 4.5174725 28.16074 3.8097184 24.613143 4.7285156 21.101562 C 6.5661102 14.078402 14.86053 9.2469364 24.003906 9.2480469 z M 24 13.916016 C 24.370749 13.916016 24.741498 14.099629 24.953125 14.466797 C 28.128123 18.491204 30.598645 22.941581 33.152344 27.365234 C 33.576127 28.098846 31.448781 29.016035 30.601562 29.015625 L 23.96875 25.734375 L 17.398438 29.015625 C 16.551219 29.016035 14.423873 28.098846 14.847656 27.365234 C 17.174732 22.793909 20.096138 18.639851 23.046875 14.466797 C 23.258502 14.099629 23.629251 13.916016 24 13.916016 z M 24 15.912109 L 20.853516 21.363281 L 17.703125 26.816406 L 24 24.003906 L 30.296875 26.816406 L 27.148438 21.363281 L 24 15.912109 z M 24 28.46875 L 24.595703 30.279297 L 26.40625 30.875 L 24.595703 31.470703 L 24 33.28125 L 23.404297 31.470703 L 21.59375 30.875 L 23.404297 30.279297 L 24 28.46875 z M 24 34.173828 L 24.910156 36.482422 L 27.21875 37.392578 L 24.910156 38.304688 L 24 40.611328 L 23.089844 38.304688 L 20.78125 37.392578 L 23.089844 36.482422 L 24 34.173828 z "
     id="circle2" />
</svg>

<?xml version="1.0" encoding="UTF-8"?>
<svg version="1.1" viewBox="0 0 48 48" xmlns="http://www.w3.org/2000/svg">
    <path d="m24 2a22 22 0 0 0-22 22 22 22 0 0 0 22 22 22 22 0 0 0 22-22 22 22 0 0 0-22-22zm0.003906 7.248c9.1434 0.0011105 17.439 4.8337 19.273 11.857 0.9173 3.5118 0.20055 7.0558-1.9043 9.9902-2.1048 2.9344-5.1269 5.4868-9.373 6.791-1.0835 0.33327-2.4819-2.2097-1.3984-2.543 3.9389-1.2098 6.5419-2.6497 8.3945-5.2324 1.8526-2.5827 2.5226-5.5583 1.7363-8.5684-1.5725-6.0201-8.1919-11.093-16.732-11.094-8.5405-0.001038-15.157 5.0662-16.732 11.086-0.78753 3.0099-0.11317 5.9911 1.7383 8.5742 1.8515 2.5831 4.4542 4.0236 8.3926 5.2344 1.0834 0.33346-0.31504 2.8764-1.3984 2.543-4.2456-1.3053-7.2753-3.8561-9.3789-6.791-2.1036-2.935-2.8114-6.4826-1.8926-9.9941 1.8376-7.0232 10.132-11.855 19.275-11.854zm-0.003906 4.668c0.37075 0 0.7415 0.18361 0.95312 0.55078 3.175 4.0244 5.6455 8.4748 8.1992 12.898 0.42378 0.73361-1.7036 1.6508-2.5508 1.6504l-6.6328-3.2812-6.5703 3.2812c-0.84722 4.1e-4 -2.9746-0.91678-2.5508-1.6504 2.3271-4.5713 5.2485-8.7254 8.1992-12.898 0.21163-0.36717 0.58238-0.55078 0.95312-0.55078zm0 1.9961-3.1465 5.4512-3.1504 5.4531 6.2969-2.8125 6.2969 2.8125-3.1484-5.4531-3.1484-5.4512zm0 12.557 0.5957 1.8105 1.8105 0.5957-1.8105 0.5957-0.5957 1.8105-0.5957-1.8105-1.8105-0.5957 1.8105-0.5957 0.5957-1.8105zm0 5.7051 0.91016 2.3086 2.3086 0.91016-2.3086 0.91211-0.91016 2.3066-0.91016-2.3066-2.3086-0.91211 2.3086-0.91016 0.91016-2.3086z" fill="#fff"/>
</svg>
